X: 13403
T: Flirting With The Edge
R: polka
M: 2/4
K: Cmajor
|:ED FD|C>c AG|A/B/A/G/ FA|GE EC|
DC CD|FG AB/A/|GE cC|1 AG EC:|2 AG ce||
d>e dc|AG FA|GE cC|AG ce|
d>e dc|AG F2|ge dc|d2 dc|
A>d dc|AG FA|GE cC|AG ce|
d>e dc|AG FA|GE C>c|AG EC||

